public/avatar/item2/17.svg

<svg xmlns:xlink="http://www.w3.org/1999/xlink" height="99.2" width="82.2" xmlns="http://www.w3.org/2000/svg"><use height="10" transform="translate(33.3 71.45)" width="10" xlink:href="#a"/><defs><g id="a"><path d="M12.3 29.7q0 2.05-1.5 3.55-1.45 1.45-3.55 1.45-2.05 0-3.45-1.45-1.5-1.5-1.5-3.55t1.5-3.5q1.4-1.5 3.45-1.5 2.1 0 3.55 1.5 1.5 1.45 1.5 3.5" fill-rule="evenodd" transform="translate(-2.3 -24.7)"/><path d="M7.3 25.6q2.85 0 3.8 2.55H3.45Q4.4 25.6 7.3 25.6" fill="#70bee4" fill-rule="evenodd" transform="translate(-2.3 -24.7)"/><path d="M7.25 33.85q-2.55 0-3.75-2.45h7.55q-1.2 2.45-3.8 2.45" fill="#3ba6db" fill-rule="evenodd" transform="translate(-2.3 -24.7)"/><path d="M11.1 28.15q.35.8.35 1.55 0 .8-.4 1.7H3.5q-.35-.75-.35-1.7t.3-1.55h7.65" fill="#fff" fill-rule="evenodd" transform="translate(-2.3 -24.7)"/><path d="M8.35 29.8q0 .95-.95.95-1.05 0-1.05-.95 0-1.05 1.05-1.05.95 0 .95 1.05" fill="#ffd400" fill-rule="evenodd" transform="translate(-2.3 -24.7)"/><path d="M4.5 27.15q1.3-.9 2.7-.9 1.8 0 2.8 1.1" fill="none" stroke="#fff" stroke-linecap="round" stroke-linejoin="round" stroke-opacity=".6" transform="translate(-2.3 -24.7)"/><path d="M10 32.4q-1.3.9-2.7.9-1.8 0-2.8-1.1" fill="none" stroke="#000" stroke-linecap="round" stroke-linejoin="round" stroke-opacity=".302" transform="translate(-2.3 -24.7)"/></g></defs></svg>

<?xml version="1.0" encoding="UTF-8" standalone="no"?>
<svg xmlns:xlink="http://www.w3.org/1999/xlink" height="99.2px" width="82.2px" xmlns="http://www.w3.org/2000/svg">
  <g transform="matrix(1.0, 0.0, 0.0, 1.0, 31.0, 46.75)">
    <use height="10.0" transform="matrix(1.0, 0.0, 0.0, 1.0, 2.3, 24.7)" width="10.0" xlink:href="#shape0"/>
  </g>
  <defs>
    <g id="shape0" transform="matrix(1.0, 0.0, 0.0, 1.0, -2.3, -24.7)">
      <path d="M12.3 29.7 Q12.3 31.75 10.8 33.25 9.35 34.7 7.25 34.7 5.2 34.7 3.8 33.25 2.3 31.75 2.3 29.7 2.3 27.65 3.8 26.2 5.2 24.7 7.25 24.7 9.35 24.7 10.8 26.2 12.3 27.65 12.3 29.7" fill="#000000" fill-rule="evenodd" stroke="none"/>
      <path d="M7.3 25.6 Q10.15 25.6 11.1 28.15 L3.45 28.15 Q4.4 25.6 7.3 25.6" fill="#70bee4" fill-rule="evenodd" stroke="none"/>
      <path d="M7.25 33.85 Q4.7 33.85 3.5 31.4 L11.05 31.4 Q9.85 33.85 7.25 33.85" fill="#3ba6db" fill-rule="evenodd" stroke="none"/>
      <path d="M11.1 28.15 Q11.45 28.95 11.45 29.7 11.45 30.5 11.05 31.4 L3.5 31.4 Q3.15 30.65 3.15 29.7 3.15 28.75 3.45 28.15 L11.1 28.15" fill="#ffffff" fill-rule="evenodd" stroke="none"/>
      <path d="M8.35 29.8 Q8.35 30.75 7.4 30.75 6.35 30.75 6.35 29.8 6.35 28.75 7.4 28.75 8.35 28.75 8.35 29.8" fill="#ffd400" fill-rule="evenodd" stroke="none"/>
      <path d="M4.5 27.15 Q5.8 26.25 7.2 26.25 9.0 26.25 10.0 27.35" fill="none" stroke="#ffffff" stroke-linecap="round" stroke-linejoin="round" stroke-opacity="0.6" stroke-width="1.0"/>
      <path d="M10.0 32.4 Q8.7 33.3 7.3 33.3 5.5 33.3 4.5 32.2" fill="none" stroke="#000000" stroke-linecap="round" stroke-linejoin="round" stroke-opacity="0.3019608" stroke-width="1.0"/>
    </g>
  </defs>
</svg>
